X: 1
T: Kindness Itself
C: Muriel A. Johnstone
B: To Dance To 1
S: Anselm Lingnau <anselm:strathspey.org> strathspey 2009-1-15
R: reel
M: 4/4
L: 1/8
K: Gm
G2 \
|  "Gm"DG^FG BG^FG | "F"AFcF "Bb"dF"F/A"cF | "Gm"BAGA "Cm(Eb)"Bcde | "D7"dgg^f "Gm"g2g2 :|
ga \
| "Gm"bgdB GABG | "F"Aff=e f2ga | "Gm"bgdB GABG | "D"^Fdd^c d=e^fa ||
y3 \
| "Gm"bgdB GABG | "F"Aff=e f2ga | "Eb"geBG "D7"^FAdc | "Gm"B2G2 G2 |]
